static/assets/images/tokens/matic-mono.svg

<svg width="256" height="256" viewBox="0 0 256 256" fill="none" xmlns="http://www.w3.org/2000/svg">
<path fill-rule="evenodd" clip-rule="evenodd" d="M218.51 218.51C242.514 194.505 256 161.948 256 128C256 94.0523 242.514 61.495 218.51 37.4903C194.505 13.4857 161.948 0 128 0C94.0523 0 61.495 13.4857 37.4903 37.4903C13.4857 61.495 0 94.0523 0 128C0 161.948 13.4857 194.505 37.4903 218.51C61.495 242.514 94.0523 256 128 256C161.948 256 194.505 242.514 218.51 218.51ZM160.963 97.8182C164.69 95.9525 168.883 95.9525 172.145 97.8182L209.881 119.74C213.608 122.072 215.471 125.803 215.471 129.535V173.845C215.471 178.042 213.142 181.774 209.881 183.64L172.145 205.561C168.417 207.427 164.225 207.427 160.963 205.561L123.227 183.64C119.5 181.307 117.637 177.576 117.637 173.845V158.453L135.34 148.192V163.117C135.34 167.315 137.669 171.046 140.931 172.912L160.963 184.572C164.69 186.438 168.883 186.438 172.145 184.572L191.711 172.912C195.439 170.58 197.302 166.848 197.302 163.117V139.796C197.302 135.598 194.973 131.867 191.711 130.001L171.679 118.341C167.952 116.475 163.759 116.475 160.498 118.341L134.874 133.266L117.171 143.527L91.5473 158.453C87.8203 160.318 83.6273 160.318 80.3662 158.453L42.6299 136.531C38.9029 134.199 37.0394 130.468 37.0394 126.736V82.8927C37.0394 79.1613 38.9029 75.4299 42.6299 73.5642L80.8321 51.176C84.5591 49.3103 88.752 49.3103 92.0132 51.176L129.283 73.0978C133.01 75.4299 134.874 79.1613 134.874 82.8927V98.751L117.171 109.012V93.6204C117.171 89.4226 114.841 85.6912 111.58 83.8255L91.5473 71.6986C87.8203 69.8329 83.6273 69.8329 80.3662 71.6986L60.3334 83.3591C56.6063 85.6912 54.7428 89.4226 54.7428 93.1539V116.475C54.7428 120.673 57.0722 124.404 60.3334 126.27L80.3662 138.397C84.0932 140.262 88.2861 140.262 91.5473 138.397L117.171 123.005L134.874 113.21L160.963 97.8182Z" fill="black"/>
</svg>

<svg xmlns="http://www.w3.org/2000/svg" fill="none" viewBox="0 0 256 256"><path fill="#000" fill-rule="evenodd" d="M218.51 218.51a128.003 128.003 0 0 0 0-181.02 128.001 128.001 0 1 0 0 181.02M160.963 97.818c3.727-1.865 7.92-1.865 11.182 0l37.736 21.922c3.727 2.332 5.59 6.063 5.59 9.795v44.31c0 4.197-2.329 7.929-5.59 9.795l-37.736 21.921c-3.728 1.866-7.92 1.866-11.182 0l-37.736-21.921c-3.727-2.333-5.59-6.064-5.59-9.795v-15.392l17.703-10.261v14.925c0 4.198 2.329 7.929 5.591 9.795l20.032 11.66c3.727 1.866 7.92 1.866 11.182 0l19.566-11.66c3.728-2.332 5.591-6.064 5.591-9.795v-23.321c0-4.198-2.329-7.929-5.591-9.795l-20.032-11.66c-3.727-1.866-7.92-1.866-11.181 0l-25.624 14.925-17.703 10.261-25.624 14.926c-3.727 1.865-7.92 1.865-11.18 0L42.63 136.531c-3.727-2.332-5.59-6.063-5.59-9.795V82.893c0-3.732 1.863-7.463 5.59-9.329l38.202-22.388c3.727-1.866 7.92-1.866 11.181 0l37.27 21.922c3.727 2.332 5.591 6.063 5.591 9.795V98.75l-17.703 10.261V93.62c0-4.197-2.33-7.929-5.591-9.794L91.547 71.699c-3.727-1.866-7.92-1.866-11.18 0l-20.034 11.66c-3.727 2.332-5.59 6.064-5.59 9.795v23.321c0 4.198 2.33 7.929 5.59 9.795l20.033 12.127c3.727 1.865 7.92 1.865 11.181 0l25.624-15.392 17.703-9.795z" clip-rule="evenodd"/></svg>
